X:1
T: Cumming
C:
R:Reel
Q: 232
K:C
M:4/4
L:1/8
|:A2|GA cd e2 ag|f2 dc B3G|Ac Bd ce da|g2 de c2 A2|
GA cd e2 ag|f2 dc B3G|Ac Bd ce da|g2 de c2 e2|
ef ea ^g2 ef|ef eb a2 ab|c'2 ba f2 af|e2 Bc A2 ga|
ga gc' b2 ga|ga gd' c'3c'|af db ge ca|fd Bg c2:|
